!!!OTL: HAT EINS GESCHLAGEN
!!!ARE: Europa, Mitteleuropa, Deutschland, Sachsen, Dresden
!!!SCT: E1899
!!!YEM: Copyright 1995, estate of Helmut Schaffrath.
**kern
*ICvox
*Ivox
*M6/8
*k[f#]
*G:
{8d
=1
4g
8g
8g
8g
8b
=2
8g
8g
8g
4d}
{8d
=3
4g
8g
8g
8g
8b
=4
8g
8g
8g
4d}
{8d
=5
4g
8g
8g
8g
8g
=6
4dd
4.r}
{8f#
=7
4g
8g
8g
8g
8g
=8
4dd
4.r}
{8d
=9
4g
8g
8g
8g
8dd
=10
4g
4.r}
==
!!!AGN: Kinder - Lied, Zaehl - Spiel
!!!ONB: ESAC (Essen Associative Code) Database: ERK3
!!!AMT: compound duple
!!!AIN: vox
!!!EED: Helmut Schaffrath
!!!EEV: 1.0
*-
